X:501
T:Thatched Cabin, The
R:jig
C:Martin "Junior" Crehan (1908-1998)
Z:id:hn-jig-501
M:6/8
L:1/8
K:Ddor
EDE DCA, | FDE FGA | dcA EAG | EA,A, C2D |
EDE DCA, | FDE FGA | dcA EAG | EDD D3 :|
|: Add ded | cAB cAG | Add ded | cAG A2G |
Add ded | cAB cAG | EDE GEC | EDD D3 :|

